**kern	**silbe
*ICvox	*
*D:	*
*M4/4	*
*clefC3	*
r;	.
=1	=1
2r	.
4r	.
8r	.
16a	Ba
16b-	ba
=2	=2
8cc	ba-
8b-	-ya
8a	ba
8[g	bum
8g]	_
4e	bum
8[f	ba
=3	=3
4f]	_
4r	.
4r	.
8r	.
24e	ba-
24f	-da-
24e	-ya
=4	=4
4.d	bum
8[A	bum
8A]	_
4a	wee
8[a	bah
=5	=5
4.a]	_
8r	.
4r	.
8r	.
16a	_
16b-	_
=6	=6
8cc	Ba
8b-	ba-
8a	-ya
8[g	ba
8g]	bum
4e	_
8[f	_
=7	=7
4f_	ba
8.f]	_
16r	.
4r	.
4r	.
=8	=8
2r	.
8r	.
8d	When
8e	we
8eq	_
8f#	met
=9	=9
8e	_
8r	.
4r	.
8r	.
8a	Al
8g	_
8g	ways
=10	=10
8f#	_
16g	knew
16[f#	_
4f#]	_
8r	.
8d	I
8e	would
8eq	_
8[f#	feel
=11	=11
4f#]	_
8g	that
8[e	ma
8e]	_
8d	gic
16f~	for
16d	_
8[e	you
=12	=12
4e]	_
4r	.
8r	.
8d	On
8e	my
8eq	_
8f#	mind
=13	=13
8e	_
8e	_
4r	.
8r	.
4a	con-
16g	-stant
16f#	_
=14	=14
16g	ly
8.f#	_
4r	.
8r	.
8d	in
8e	my
8[f#	arms
=15	=15
4f#]	_
8g	is
8[e	where
8e]	_
8d	you
16f~	should
16d	_
8e	be
=16	=16
2r	.
8r	.
8.d	Mmm.
16r	.
8r	.
=17	=17
4r	.
8f#	I
8e	_
8e	love
4d	you
8[e	here
=18	=18
8e]	_
8f#	by
8e	_
16e	me,
16[d	_
4d]	_
8dq	_
8e	ba-
8f#	-by
=19	=19
4r	.
8f#	you
8e	_
8e	let
4d	my
8[a	love
=20	=20
8a]	_
8f#	fly
8e	_
16e	free
16[d	_
8d]	_
16e	ly
16f#	_
8e	_
8r	.
=21	=21
4r	.
8f#	I
8e	_
8e	want
4d	you
8[e	in
=22	=22
8e]	_
8f#	my
8d	_
8d	life
8r	.
16d	for
16e	_
8f#	all
8f#	time
=23	=23
16e	_
8.[d	_
4d_	_
8.d]	_
16r	.
4r	.
=24	=24
8Aq	_
4B	I'm
8c#	_
8[d	_
8d]	_
8e	_
8f#	_
8[a	_
=25	=25
2a_	_
8a]	_
8f#	_
4r	.
=26	=26
8gq	_
8a	caught
8a	up
32a	in
16.f#	_
32f#	the
16.e	_
8e	rap-
8c#	-ture
8c#	of
32d	love
16.[B	_
=27	=27
2B_	_
8G~q	_
8B]	_
8r	.
4r	.
=28	=28
8Aq	_
4B	No-
8c#	-thing
8[d	else
8d]	_
8e	can
8f#	com
8eq	_
8f#	pare
=29	=29
2.e	_
4r	.
=30	=30
8gq	_
8a	When
8a	I
32a	feel
16.f#	_
32f#	the
16.e	_
8e	ma-
8c#	-gic
8c#	in
32d	you!
16.[B	_
=31	=31
2B_	_
8B]	_
8r	.
4r	.
=32	=32
8Aq	_
4B	_
8c#	_
8c#q	_
8[d	_
8d]	_
8e	_
8f#	_
8[a	_
=33	=33
2a_	_
8a]	_
8r	.
8r	.
16a	Ba
16b-	ba
=34	=34
8cc	ba
8b-	ya
8a	ba
8[g	bum
8g]	_
4e	bum
8[f	ba
=35	=35
4f]	_
4r	.
4r	.
8r	.
24e	huh
24f	huh
24e	ya
=36	=36
4.d	bum
8[A	bum,
8A]	_
4a	we
8[a	stand
=37	=37
8a]	_
8f#	_
4r	.
8r	.
8a	side
8g	_
8g	by
=38	=38
8f#	_
8f#	side
4r	.
8r	.
8d	'till
8e	the
16e	storms
16[f#	_
=39	=39
4f#]	_
8g	of
8[e	life
8e]	_
8d	pass
8f~	us
8dq	_
8e	by
=40	=40
4e	_
4r	.
8r	.
8d	Light
8e	my
8eq	_
8f#	life
=41	=41
8e	_
8r	.
4r	.
8r	.
8a	Warm
8g	_
8g	my
=42	=42
8f#	_
8f#	heart
16e	_
8.d	_
8r	.
8d	Say
8e	to
8eq	_
8[f#	night
=43	=43
4f#]	_
32g	will
16.e	_
8[e	be
8e]	_
8d	just
8d~	the
8dq	_
8[e	start!
=44	=44
4e]	_
4r	.
2r	.
=45	=45
4r	.
8f#	I
8e	_
32e	love
16.d	_
8[d	you
8d]	_
8[e	here
=46	=46
8e]	_
8f#	by
8e	_
16e	me,
16[d	_
4d]	_
8dq	_
8e	ba-
8eq	_
8f#	-by
=47	=47
4r	.
8f#	you
8e	_
8e	let
4d	my
8[a	love
=48	=48
8a]	_
8eq	_
8f	fly
8e	_
16e	free
16[d	_
8d]	_
16e	ly
16f#	_
8e	_
8r	.
=49	=49
4r	.
8f#	I
8e	_
8e	want
4d	you
8[e	in
=50	=50
8e]	_
8f#	my
8d	_
8d	life
8r	.
8dq	_
8e	for
8f#	all
8f#	time
=51	=51
16e	_
8.[d	_
4d_	_
8.d]	_
16r	.
4r	.
=52	=52
8Aq	_
4B	I'm
8c#	_
8[d	_
8d]	_
8e	_
8f#	_
8[a	_
=53	=53
2a_	_
8a]	_
8f#~	_
4r	.
=54	=54
8gq	_
8a	caught
8a	up
32a	in
16.f#	_
32f#	the
16.e	_
32e	rap-
16.c#	_
8c#	-ture
8c#	of
32d	love
16.[B	_
=55	=55
2B_	_
8G~q	_
8B]	_
8r	.
4r	.
=56	=56
8Aq	_
4B	No-
8c#	-thing
8[d	else
8d]	_
8e	can
8f#	com
8eq	_
8f#	pare
=57	=57
2.e	_
4r	.
=58	=58
8gq	_
8a	When
8a	I
32a	feel
16.f#	_
32f#	the
16.e	_
32e	ma-
16.c#	_
8c#	-gic
8c#q	_
8d	in
32d	you
16.[B	_
=59	=59
2B_	_
8B]	_
8r	.
8r	.
8A	The
=60	=60
4B	fee-
8c#	-ling's
8c#q	_
8[d	al
8d]	_
8e	ways
8eq	_
8f#	_
8[a	new
=61	=61
2a_	_
4a]	_
8f#~	wa
8r	.
=62	=62
8gq	_
8a	Caught
8a	up
32a	in
16.f#	_
32f#	the
16.e	_
32e	rap
16.c#	_
8c#	ture
8c#	of
32d	you
16.[B	_
=63	=63
2B_	_
8B]	_
8r	.
4r	.
=64	=64
8Aq	_
4B	I'm
8c#	_
8[d	_
8d]	_
8e	_
8f#	_
8[a	_
=65	=65
2a_	_
8.a]	_
16r	.
4r	.
=66	=66
1r	.
=67	=67
1r	.
=68	=68
1r	.
=69	=69
1r	.
=70	=70
1r	.
=71	=71
1r	.
=72	=72
1r	.
=73	=73
4r	.
4f#	I
8a	love
8aq	_
8[b	you
8b]	_
8[cc#	here
=74	=74
8cc#]	_
8cc#q	_
8dd	by
8b	_
8[b	me
8b]	_
16a	_
16f#	_
8eq	_
8f#	ba-
16e	-by
16d	_
=75	=75
4r	.
8f#	you
8e	_
8e	let
4d	my
8[a	love
=76	=76
8a]	_
8eq	_
8f#	fly
8e	_
16e	free
16[d	_
8d]	_
16e	ly
16f#	_
4e	_
=77	=77
4r	.
8f#	I
8e	_
8e	want
4d	you
8[e	in
=78	=78
8e]	_
8f#	my
8d	_
8d	life
8r	.
8dq	_
8e	for
8f#	all
8f#q	_
8[a	time
=79	=79
2a_	_
8a]	_
8r	.
4r	.
=80	=80
8Aq	_
4B	I'm
8c#	_
8[d	_
8d]	_
8e	_
8f#	_
8[a	_
=81	=81
2a_	_
8a]	_
8f#~	_
4r	.
=82	=82
8gq	_
8a	caught
8a	up
32a	in
16.f#	_
32f#	the
16.e	_
32e	rap-
16.c#	_
8c#	-ture
8c#	of
32d	love
16.[B	_
=83	=83
2B_	_
8B]	_
8r	.
4r	.
=84	=84
8Aq	_
4B	_
8c#	_
8[d	_
8d]	_
8e	_
8f#	_
8eq	_
8f#	_
=85	=85
2.e	_
4r	.
=86	=86
1r	.
=87	=87
1r	.
=88	=88
1r	.
=89	=89
1r	.
=90	=90
1r	.
=91	=91
1r	.
=92	=92
1r	.
=93	=93
1r	.
=94	=94
1r	.
=95	=95
1r	.
=96	=96
1r	.
r;	.
*-	*-
!!!ENC: Nathaniel Condit-Schultz